packages/kaspersky-hexa-ui-icons/src/iconsSVGs/24/NumberedList.svg

<svg width="24" height="24" viewBox="0 0 24 24" fill="none" xmlns="http://www.w3.org/2000/svg">
<path d="M5.41504 16.0259C5.65749 16.026 5.87592 16.172 5.96875 16.396C6.06155 16.6201 6.01027 16.8777 5.83887 17.0493L5.41113 17.4761C5.77507 17.7206 6.01464 18.1364 6.01465 18.6079C6.01446 19.3601 5.40458 19.9701 4.65234 19.9702H4.18164C3.73117 19.9701 3.31259 19.7368 3.0752 19.354C2.90082 19.0725 2.98729 18.7025 3.26855 18.5278C3.55004 18.3534 3.92002 18.4399 4.09473 18.7212C4.11328 18.7511 4.14643 18.7699 4.18164 18.77H4.65234C4.74183 18.7699 4.81427 18.6973 4.81445 18.6079C4.81444 18.5183 4.74194 18.4449 4.65234 18.4448H4.19531C3.95273 18.4447 3.73346 18.2988 3.64062 18.0747C3.54791 17.8507 3.59923 17.5929 3.77051 17.4214L3.9668 17.2251H3.58496C3.2537 17.2249 2.98535 16.9568 2.98535 16.6255C2.98536 16.2942 3.2537 16.026 3.58496 16.0259H5.41504Z" fill="black"/>
<path d="M21 17.0005C21.5523 17.0005 22 17.4482 22 18.0005C21.9998 18.5525 21.5521 19.0005 21 19.0005H9C8.44786 19.0005 8.00024 18.5525 8 18.0005C8 17.4482 8.44772 17.0005 9 17.0005H21Z" fill="black"/>
<path d="M4.45312 9.97605C5.34577 9.97605 6.0368 10.7571 5.92773 11.643C5.88788 11.9654 5.72073 12.2596 5.46387 12.4585L4.9707 12.8403H5.45508C5.78639 12.8404 6.05469 13.1096 6.05469 13.4409C6.05439 13.772 5.78621 14.0404 5.45508 14.0405H3.54492C3.21376 14.0405 2.94561 13.772 2.94531 13.4409V13.3569C2.94531 13.0633 3.08135 12.7858 3.31348 12.6059L4.72949 11.5093C4.73343 11.5062 4.73658 11.5015 4.7373 11.4966C4.75833 11.3261 4.62488 11.1753 4.45312 11.1753H4.39844C4.25855 11.1755 4.14475 11.2893 4.14453 11.4292C4.14434 11.7604 3.87618 12.0298 3.54492 12.0298C3.2137 12.0297 2.9455 11.7604 2.94531 11.4292C2.94553 10.6265 3.59581 9.9763 4.39844 9.97605H4.45312Z" fill="black"/>
<path d="M21 11.0005C21.5523 11.0005 22 11.4482 22 12.0005C21.9998 12.5525 21.5521 13.0005 21 13.0005H9C8.44786 13.0005 8.00024 12.5525 8 12.0005C8 11.4482 8.44772 11.0005 9 11.0005H21Z" fill="black"/>
<path d="M4.22461 4.00535C4.39621 3.83406 4.65487 3.78169 4.87891 3.87449C5.10286 3.96736 5.24886 4.18674 5.24902 4.42918V7.57468C5.24902 7.90582 4.98046 8.17392 4.64941 8.17429C4.31804 8.17429 4.04883 7.90605 4.04883 7.57468V5.87742L4.02441 5.90183C3.79014 6.13593 3.41103 6.13593 3.17676 5.90183C2.94246 5.66752 2.94245 5.28751 3.17676 5.0532L4.22461 4.00535Z" fill="black"/>
<path d="M21 5.00046C21.5523 5.00046 22 5.44818 22 6.00046C21.9998 6.55254 21.5521 7.00046 21 7.00046H9C8.44786 7.00046 8.00024 6.55254 8 6.00046C8 5.44818 8.44772 5.00046 9 5.00046H21Z" fill="black"/>
</svg>

<svg xmlns="http://www.w3.org/2000/svg" width="24" height="24" fill="none" viewBox="0 0 24 24"><path fill="#000" fill-rule="evenodd" d="M4.879 3.8745a.602.602 0 0 0-.6544.1308L3.1768 5.0532a.6.6 0 0 0 0 .8486.5993.5993 0 0 0 .8476 0l.0244-.0244v1.6973a.6002.6002 0 0 0 1.2002 0V4.4292a.601.601 0 0 0-.37-.5547M22 6.0005c0-.5523-.4477-1-1-1H9c-.5523 0-1 .4477-1 1 .0002.552.4479 1 1 1h12c.5521 0 .9998-.448 1-1M4.4531 9.976c.8927 0 1.5837.7811 1.4746 1.667a1.222 1.222 0 0 1-.4638.8155l-.4932.3818h.4844a.6003.6003 0 0 1 .5996.6006.6.6 0 0 1-.5996.5996H3.5449a.6.6 0 0 1-.5996-.5996v-.084c0-.2936.136-.5711.3682-.751l1.416-1.0966a.02.02 0 0 0 .0078-.0127.2866.2866 0 0 0-.2842-.3213h-.0547a.2546.2546 0 0 0-.2539.2539c-.0002.3312-.2683.6006-.5996.6006-.3312-.0001-.5994-.2694-.5996-.6006.0002-.8027.6505-1.4529 1.4531-1.4532zM22 12.0005c0-.5523-.4477-1-1-1H9c-.5523 0-1 .4477-1 1 .0002.552.4479 1 1 1h12c.5521 0 .9998-.448 1-1M5.415 16.0259a.5996.5996 0 0 1 .4239 1.0234l-.4278.4267c.364.2446.6035.6604.6035 1.1319-.0001.7522-.61 1.3622-1.3622 1.3623h-.4708a1.303 1.303 0 0 1-1.1064-.6162.6006.6006 0 0 1 .1933-.8262.6005.6005 0 0 1 .8262.1934.103.103 0 0 0 .087.0488h.4707a.1624.1624 0 0 0 .162-.1621.163.163 0 0 0-.162-.1631h-.457a.601.601 0 0 1-.5548-.3701.6.6 0 0 1 .13-.6533l.1962-.1963H3.585a.5996.5996 0 1 1 0-1.1992zM22 18.0005c0-.5523-.4477-1-1-1H9c-.5523 0-1 .4477-1 1 .0002.552.4479 1 1 1h12c.5521 0 .9998-.448 1-1"/></svg>
